Dominus_Dark_Funeral/scalable/apps/wordpress.svg

<svg xmlns="http://www.w3.org/2000/svg" xmlns:xlink="http://www.w3.org/1999/xlink" width="48" height="48" viewBox="0 0 12.7 12.7"><defs><linearGradient id="c"><stop offset="0" stop-opacity=".5"/><stop stop-opacity="0" offset="1"/></linearGradient><linearGradient id="b"><stop offset="0" stop-color="#80b3ff"/><stop offset="1" stop-color="#507299"/></linearGradient><linearGradient id="a"><stop offset="0"/><stop offset="1" stop-opacity="0"/></linearGradient><linearGradient xlink:href="#b" id="d" x1="6.33" y1="6.87" x2="11.69" y2="6.35" gradientUnits="userSpaceOnUse"/><linearGradient xlink:href="#c" id="e" gradientUnits="userSpaceOnUse" x1="-.306" y1=".262" x2="14.104" y2="7.093"/></defs><path d="M6.35.1C4.81.1 3.57.39 2.66.97A3.67 3.67 0 0 0 1 4.22c0 1.91 1.54 4.47 2.01 5.2.54.85 1.13 1.61 1.65 2.16.68.7 1.21 1.03 1.69 1.03s1.01-.33 1.69-1.03a15.2 15.2 0 0 0 1.65-2.15c.47-.74 2-3.3 2-5.21 0-1.42-.57-2.54-1.65-3.25A6.75 6.75 0 0 0 6.35.09z" fill="url(#d)"/><path d="M7.694 11.862c.118-.105.218-.16.346-.292a15.2 15.2 0 0 0 .972-1.168 15.2 15.2 0 0 0 .678-.982c.235-.37.735-1.195 1.176-2.166.22-.486.427-1.008.578-1.528.048-.165.042-.318.078-.48L8.925 2.647l-1.106-.645-1.05-.32-1.135.043-1.014.416-.823.624-.486.572-.242.512-.295.997.009.745.12.858.628 1.248z" fill="url(#e)"/><path d="M6.35 1.585a3.706 3.706 0 0 0-3.706 3.707A3.706 3.706 0 0 0 6.35 8.998a3.706 3.706 0 0 0 3.706-3.706A3.706 3.706 0 0 0 6.35 1.585zm0 .223a3.484 3.484 0 0 1 2.529 1.087H8.68c-.346 0-.593.296-.593.618 0 .288.165.453.346.741.14.23.296.535.296.972 0 .296-.115.65-.272 1.137l-.354 1.17-1.268-3.765.494-.008c.181-.025.165-.453-.025-.445 0 0-.658.05-1.03.05-.345 0-1.07-.05-1.07-.05-.198-.008-.222.437-.033.445l.527.008.544 1.482-.766 2.307-1.285-3.764.51-.033c.19-.025.165-.428-.016-.42 0 0-.683.041-1.054.041h-.197A3.484 3.484 0 0 1 6.35 1.808zm3.047 1.787a3.484 3.484 0 0 1 .437 1.697 3.484 3.484 0 0 1-1.647 2.964L9.19 5.333c.206-.494.206-.906.206-1.26v-.47zm-6.202.222l-.057.148L4.744 8.38a3.484 3.484 0 0 0 .054.025 3.484 3.484 0 0 0 .276.123 3.484 3.484 0 0 0 .329.116l1.013-2.932 1.046 2.882.37-.148a3.484 3.484 0 0 1-.37.148 3.484 3.484 0 0 1-1.112.182 3.484 3.484 0 0 1-.947-.132 3.484 3.484 0 0 1-.605-.239 3.484 3.484 0 0 1-.054-.025 3.484 3.484 0 0 1-1.878-3.088 3.484 3.484 0 0 1 .33-1.475zm4.819 4.53v.009l-.182.082a3.484 3.484 0 0 0 .182-.09z" fill="#f9f9f9"/><path d="M6.35.1C4.81.1 3.57.39 2.66.97A3.67 3.67 0 0 0 1 4.22c0 1.91 1.54 4.47 2.01 5.2.54.85 1.13 1.61 1.65 2.16.68.7 1.21 1.03 1.69 1.03s1.01-.33 1.69-1.03a15.2 15.2 0 0 0 1.65-2.15c.47-.74 2-3.3 2-5.21 0-1.42-.57-2.54-1.65-3.25A6.75 6.75 0 0 0 6.35.09zm0 .03C6.91.15 7.44.2 7.9.31a5.82 5.82 0 0 1 1.6.66 3.65 3.65 0 0 1 1.24 1.36c.14.27.25.57.32.88a4.61 4.61 0 0 1-.14 2.53c-.15.52-.36 1.04-.58 1.52-.44.97-.95 1.8-1.18 2.17a15.2 15.2 0 0 1-1.65 2.15 4.9 4.9 0 0 1-.92.78.96.96 0 0 1-.24.1.96.96 0 0 1-.24-.1 4.76 4.76 0 0 1-.92-.78 14.41 14.41 0 0 1-1.65-2.15 19.2 19.2 0 0 1-1.18-2.17c-.22-.48-.43-1-.58-1.52a4.6 4.6 0 0 1-.14-2.52 3.73 3.73 0 0 1 .84-1.64 3.65 3.65 0 0 1 1.45-1A6.83 6.83 0 0 1 6.35.13z" opacity=".2"/></svg>

<?xml version="1.0" encoding="UTF-8" standalone="no"?>
<svg
   xmlns:dc="http://purl.org/dc/elements/1.1/"
   xmlns:cc="http://creativecommons.org/ns#"
   xmlns:rdf="http://www.w3.org/1999/02/22-rdf-syntax-ns#"
   xmlns:svg="http://www.w3.org/2000/svg"
   xmlns="http://www.w3.org/2000/svg"
   xmlns:xlink="http://www.w3.org/1999/xlink"
   xmlns:sodipodi="http://sodipodi.sourceforge.net/DTD/sodipodi-0.dtd"
   xmlns:inkscape="http://www.inkscape.org/namespaces/inkscape"
   width="48"
   height="48"
   viewBox="0 0 12.7 12.7"
   version="1.1"
   id="svg29"
   sodipodi:docname="wordpress.svg"
   inkscape:version="0.92.4 (5da689c313, 2019-01-14)">
  <metadata
     id="metadata33">
    <rdf:RDF>
      <cc:Work
         rdf:about="">
        <dc:format>image/svg+xml</dc:format>
        <dc:type
           rdf:resource="http://purl.org/dc/dcmitype/StillImage" />
        <dc:title></dc:title>
      </cc:Work>
    </rdf:RDF>
  </metadata>
  <sodipodi:namedview
     pagecolor="#ffffff"
     bordercolor="#666666"
     borderopacity="1"
     objecttolerance="10"
     gridtolerance="10"
     guidetolerance="10"
     inkscape:pageopacity="0"
     inkscape:pageshadow="2"
     inkscape:window-width="1112"
     inkscape:window-height="480"
     id="namedview31"
     showgrid="false"
     inkscape:zoom="4.9166667"
     inkscape:cx="2.1355932"
     inkscape:cy="24"
     inkscape:window-x="0"
     inkscape:window-y="25"
     inkscape:window-maximized="0"
     inkscape:current-layer="svg29" />
  <defs
     id="defs19">
    <linearGradient
       id="c">
      <stop
         offset="0"
         stop-opacity=".5"
         id="stop2" />
      <stop
         stop-opacity="0"
         offset="1"
         id="stop4" />
    </linearGradient>
    <linearGradient
       id="b">
      <stop
         offset="0"
         stop-color="#80b3ff"
         id="stop7" />
      <stop
         offset="1"
         stop-color="#507299"
         id="stop9" />
    </linearGradient>
    <linearGradient
       id="a">
      <stop
         offset="0"
         id="stop12" />
      <stop
         offset="1"
         stop-opacity="0"
         id="stop14" />
    </linearGradient>
    <linearGradient
       xlink:href="#b"
       id="d"
       x1="6.33"
       y1="6.87"
       x2="11.69"
       y2="6.35"
       gradientUnits="userSpaceOnUse" />
    <linearGradient
       xlink:href="#c"
       id="e"
       gradientUnits="userSpaceOnUse"
       x1="-.306"
       y1=".262"
       x2="14.104"
       y2="7.093" />
  </defs>
  <path
     d="M 6.35,0.1 C 4.81,0.1 3.57,0.39 2.66,0.97 A 3.67,3.67 0 0 0 1,4.22 c 0,1.91 1.54,4.47 2.01,5.2 0.54,0.85 1.13,1.61 1.65,2.16 0.68,0.7 1.21,1.03 1.69,1.03 0.48,0 1.01,-0.33 1.69,-1.03 A 15.2,15.2 0 0 0 9.69,9.43 c 0.47,-0.74 2,-3.3 2,-5.21 0,-1.42 -0.57,-2.54 -1.65,-3.25 A 6.75,6.75 0 0 0 6.35,0.09 Z"
     id="path21"
     style="fill:url(#d)"
     inkscape:connector-curvature="0" />
  <path
     d="M 7.694,11.862 C 7.812,11.757 7.912,11.702 8.04,11.57 A 15.2,15.2 0 0 0 9.012,10.402 15.2,15.2 0 0 0 9.69,9.42 c 0.235,-0.37 0.735,-1.195 1.176,-2.166 0.22,-0.486 0.427,-1.008 0.578,-1.528 0.048,-0.165 0.042,-0.318 0.078,-0.48 L 8.925,2.647 7.819,2.002 6.769,1.682 5.634,1.725 4.62,2.141 3.797,2.765 3.311,3.337 3.069,3.849 2.774,4.846 2.783,5.591 2.903,6.449 3.531,7.697 Z"
     id="path23"
     style="fill:url(#e)"
     inkscape:connector-curvature="0" />
  <path
     d="M 6.35,1.585 A 3.706,3.706 0 0 0 2.644,5.292 3.706,3.706 0 0 0 6.35,8.998 3.706,3.706 0 0 0 10.056,5.292 3.706,3.706 0 0 0 6.35,1.585 Z m 0,0.223 A 3.484,3.484 0 0 1 8.879,2.895 H 8.68 c -0.346,0 -0.593,0.296 -0.593,0.618 0,0.288 0.165,0.453 0.346,0.741 0.14,0.23 0.296,0.535 0.296,0.972 0,0.296 -0.115,0.65 -0.272,1.137 L 8.103,7.533 6.835,3.768 7.329,3.76 C 7.51,3.735 7.494,3.307 7.304,3.315 c 0,0 -0.658,0.05 -1.03,0.05 -0.345,0 -1.07,-0.05 -1.07,-0.05 C 5.006,3.307 4.982,3.752 5.171,3.76 L 5.698,3.768 6.242,5.25 5.476,7.557 4.191,3.793 4.701,3.76 C 4.891,3.735 4.866,3.332 4.685,3.34 c 0,0 -0.683,0.041 -1.054,0.041 H 3.434 A 3.484,3.484 0 0 1 6.35,1.808 Z M 9.397,3.595 A 3.484,3.484 0 0 1 9.834,5.292 3.484,3.484 0 0 1 8.187,8.256 L 9.19,5.333 C 9.396,4.839 9.396,4.427 9.396,4.073 V 3.603 Z M 3.195,3.817 3.138,3.965 4.744,8.38 A 3.484,3.484 0 0 0 4.798,8.405 3.484,3.484 0 0 0 5.074,8.528 3.484,3.484 0 0 0 5.403,8.644 L 6.416,5.712 7.462,8.594 7.832,8.446 A 3.484,3.484 0 0 1 7.462,8.594 3.484,3.484 0 0 1 6.35,8.776 3.484,3.484 0 0 1 5.403,8.644 3.484,3.484 0 0 1 4.798,8.405 3.484,3.484 0 0 1 4.744,8.38 3.484,3.484 0 0 1 2.866,5.292 3.484,3.484 0 0 1 3.196,3.817 Z m 4.819,4.53 V 8.356 L 7.832,8.438 a 3.484,3.484 0 0 0 0.182,-0.09 z"
     id="path25"
     inkscape:connector-curvature="0"
     style="fill:#f9f9f9" />
  <path
     d="M 6.35,0.1 C 4.81,0.1 3.57,0.39 2.66,0.97 A 3.67,3.67 0 0 0 1,4.22 c 0,1.91 1.54,4.47 2.01,5.2 0.54,0.85 1.13,1.61 1.65,2.16 0.68,0.7 1.21,1.03 1.69,1.03 0.48,0 1.01,-0.33 1.69,-1.03 A 15.2,15.2 0 0 0 9.69,9.43 c 0.47,-0.74 2,-3.3 2,-5.21 0,-1.42 -0.57,-2.54 -1.65,-3.25 A 6.75,6.75 0 0 0 6.35,0.09 Z m 0,0.03 C 6.91,0.15 7.44,0.2 7.9,0.31 a 5.82,5.82 0 0 1 1.6,0.66 3.65,3.65 0 0 1 1.24,1.36 c 0.14,0.27 0.25,0.57 0.32,0.88 A 4.61,4.61 0 0 1 10.92,5.74 C 10.77,6.26 10.56,6.78 10.34,7.26 9.9,8.23 9.39,9.06 9.16,9.43 A 15.2,15.2 0 0 1 7.51,11.58 4.9,4.9 0 0 1 6.59,12.36 0.96,0.96 0 0 1 6.35,12.46 0.96,0.96 0 0 1 6.11,12.36 4.76,4.76 0 0 1 5.19,11.58 14.41,14.41 0 0 1 3.54,9.43 19.2,19.2 0 0 1 2.36,7.26 C 2.14,6.78 1.93,6.26 1.78,5.74 A 4.6,4.6 0 0 1 1.64,3.22 3.73,3.73 0 0 1 2.48,1.58 3.65,3.65 0 0 1 3.93,0.58 6.83,6.83 0 0 1 6.35,0.13 Z"
     id="path27"
     inkscape:connector-curvature="0"
     style="opacity:0.2" />
</svg>
